X: 34
T: This Is My Love, Do You Like Her?
Z: JohnMcTilly
S: https://thesession.org/tunes/6#setting49881
R: jig
M: 6/8
L: 1/8
K: Edor
|:"Em"E2E EDE|"G"G3 GAB|"Bm"BdB BAB|"D"d3 ABe|
"G"dBG GdB|"D"AFD DEF|"G"G2E "D"FED|1"Em"E2 F G2 F:|2 "Em" E2 E E2 A||
"C"Bee edB|"D"d3 def|"Em"e2e edB|"D"ded ABe|
"G"dBG GdB|"D"AFD DEF|"G"G2E "D"FED|"Em" E2E E2A|
"C"Bee edB|"D"d3 dgf|"Em"e2e edB|"D"ded ABe|
"G"dBG GdB|"D"AFD DEF|"G"G2E "D"FED|"Em"E2 F G2 F||

